X:1
T: Dublin Lasses
P:Version O'Neill's
R:Reel
Q: 232
K:Dm
M:4/4
L:1/8
|:cF F2 cF dF|cF FG AG G2|cF F2 cF dF|GB AG FD D2|
cF F2 cF dF|cF FG AG G2|FG Ac ((3ded) cA|GB AG FD D2|
fe fg ab ag|fe fg ad de|fe fg a2 ag|fd ec Ad d2|
fe fg ab ag|fe fg ad df|af gd f2 ed|cA GB AD D2:|
